packages/core/src/svgs/hdx.svg

<svg width="24" height="24" viewBox="0 0 24 24" fill="none" xmlns="http://www.w3.org/2000/svg">
<g clip-path="url(#clip0_31_11266)">
<path d="M0 0H24V24H0V0Z" fill="#151829"/>
<path d="M11.6228 19.6158C11.7378 19.6812 11.8677 19.7156 12 19.7156C12.1322 19.7156 12.2622 19.6812 12.3771 19.6158L18.48 16.1316C18.5937 16.0659 18.6884 15.9716 18.7545 15.8581C18.8207 15.7446 18.856 15.6158 18.8571 15.4844V8.51584C18.8566 8.38494 18.8214 8.2565 18.7552 8.14358C18.6889 8.03067 18.594 7.93731 18.48 7.87299L12.3771 4.38442C12.2622 4.31904 12.1322 4.28467 12 4.28467C11.8677 4.28467 11.7378 4.31904 11.6228 4.38442L5.51997 7.8687C5.40619 7.93438 5.31154 8.02865 5.24539 8.14215C5.17924 8.25566 5.14389 8.38447 5.14282 8.51584V15.4844C5.14334 15.6153 5.1785 15.7438 5.24474 15.8567C5.31099 15.9696 5.40594 16.063 5.51997 16.1273L11.6228 19.6158ZM11.6571 6.00013C11.7642 5.93927 11.8853 5.90727 12.0085 5.90727C12.1317 5.90727 12.2528 5.93927 12.36 6.00013L17.2243 8.68727C17.3357 8.75156 17.4214 8.83727 17.4814 8.94442C17.5457 9.05156 17.5671 9.17156 17.5671 9.29156V14.683C17.5669 14.8052 17.5342 14.9251 17.4725 15.0305C17.4108 15.1359 17.3221 15.223 17.2157 15.283L12.3428 18.0001C12.2357 18.061 12.1146 18.093 11.9914 18.093C11.8682 18.093 11.7471 18.061 11.64 18.0001L6.77997 15.313C6.67338 15.2525 6.58496 15.1645 6.5239 15.0582C6.46285 14.952 6.4314 14.8313 6.43282 14.7087V9.31727C6.43434 9.19486 6.468 9.075 6.53043 8.9697C6.59286 8.8644 6.68187 8.77735 6.78854 8.71727L11.6614 6.00013H11.6571ZM11.6228 16.1873C11.7299 16.2481 11.851 16.2801 11.9743 16.2801C12.0975 16.2801 12.2186 16.2481 12.3257 16.1873L15.4971 14.3873C15.603 14.3292 15.6919 14.2445 15.755 14.1415C15.8182 14.0385 15.8534 13.9209 15.8571 13.8001V10.2001C15.8575 10.0784 15.825 9.95885 15.7632 9.85402C15.7013 9.74919 15.6124 9.66296 15.5057 9.60442L14.5714 8.98727V13.5001L12.8571 14.4387V12.4244L11.1428 12.8101V15.9387L11.6271 16.1958L11.6228 16.1873ZM8.45139 14.3873L9.42854 15.0087V10.393L11.1428 9.45013V11.2201L12.8571 10.8558V8.04442L12.33 7.8087C12.2228 7.74784 12.1017 7.71584 11.9785 7.71584C11.8553 7.71584 11.7342 7.74784 11.6271 7.8087L8.45568 9.6087C8.34425 9.6687 8.25854 9.75442 8.19854 9.85727C8.14282 9.95156 8.14282 10.0544 8.14282 10.1573V13.843C8.14282 13.9458 8.14282 14.0487 8.19425 14.143C8.25854 14.2458 8.34425 14.3358 8.45139 14.3958V14.3873Z" fill="url(#paint0_linear_31_11266)"/>
</g>
<defs>
<linearGradient id="paint0_linear_31_11266" x1="11.9914" y1="4.36299" x2="11.9914" y2="19.6287" gradientUnits="userSpaceOnUse">
<stop stop-color="#F7F5F6"/>
<stop offset="0.88" stop-color="#A69696"/>
</linearGradient>
<clipPath id="clip0_31_11266">
<rect width="24" height="24" fill="white"/>
</clipPath>
</defs>
</svg>

<svg xmlns="http://www.w3.org/2000/svg" width="24" height="24" fill="none" viewBox="0 0 24 24"><g clip-path="url(#a)"><path fill="#151829" d="M0 0h24v24H0z"/><path fill="url(#b)" d="M11.623 19.616a.76.76 0 0 0 .754 0l6.103-3.484a.76.76 0 0 0 .377-.648V8.516a.74.74 0 0 0-.377-.643l-6.103-3.489a.76.76 0 0 0-.754 0L5.52 7.87a.75.75 0 0 0-.377.647v6.968a.74.74 0 0 0 .377.643zM11.657 6a.71.71 0 0 1 .703 0l4.864 2.687a.67.67 0 0 1 .343.605v5.391a.69.69 0 0 1-.351.6L12.343 18a.71.71 0 0 1-.703 0l-4.86-2.687a.69.69 0 0 1-.347-.604V9.317a.7.7 0 0 1 .356-.6L11.66 6zm-.034 10.187a.71.71 0 0 0 .703 0l3.171-1.8a.7.7 0 0 0 .36-.587v-3.6a.68.68 0 0 0-.351-.596l-.935-.617V13.5l-1.714.939v-2.015l-1.714.386v3.129l.484.257zm-3.172-1.8.978.622v-4.616l1.714-.943v1.77l1.714-.364V8.044l-.527-.235a.71.71 0 0 0-.703 0l-3.171 1.8a.65.65 0 0 0-.257.248c-.056.095-.056.197-.056.3v3.686c0 .103 0 .206.051.3.065.103.15.193.257.253z"/></g><defs><linearGradient id="b" x1="11.991" x2="11.991" y1="4.363" y2="19.629" gradientUnits="userSpaceOnUse"><stop stop-color="#F7F5F6"/><stop offset=".88" stop-color="#A69696"/></linearGradient><clipPath id="a"><path fill="#fff" d="M0 0h24v24H0z"/></clipPath></defs></svg>
